docs/img/rates/star-1.svg

<svg width="801" height="1018" fill="none" xmlns="http://www.w3.org/2000/svg"><path d="M262.022 284.507c5.304-13.249 23.384-14.919 31.026-2.867l84.285 132.927a22.5 22.5 0 0010.158 8.64l125.957 53.846c13.553 5.794 14.311 24.723 1.264 31.581l-116.393 61.191a22.502 22.502 0 00-10.186 10.995l-64.896 150.282c-5.807 13.448-24.581 14.236-31.494 1.321L217.24 593.248a22.5 22.5 0 00-12.621-10.692l-130.988-44.35c-14.359-4.861-16.166-24.436-2.94-31.844l125.206-70.124a22.495 22.495 0 009.894-11.269l56.231-140.462z" stroke="#fff" stroke-opacity=".3" stroke-width="5"/><path d="M276.056 362.818c2.273-5.679 10.021-6.395 13.296-1.229l56.656 89.351a12.492 12.492 0 005.643 4.8l85.752 36.659c5.809 2.483 6.134 10.596.542 13.535l-79.571 41.833a12.494 12.494 0 00-5.659 6.108l-43.697 101.19c-2.489 5.764-10.535 6.102-13.498.567l-50.328-94.015a12.502 12.502 0 00-7.011-5.94l-89.705-30.372c-6.154-2.083-6.928-10.473-1.26-13.647l85.415-47.839a12.5 12.5 0 005.497-6.26l37.928-94.741z" stroke="#fff" stroke-opacity=".6" stroke-width="5"/><path d="M257.492 218.4c5.304-13.249 23.383-14.92 31.026-2.867l111.653 176.09a22.5 22.5 0 0010.158 8.64l168.905 72.206c13.553 5.794 14.311 24.723 1.265 31.582l-156.703 82.382a22.497 22.497 0 00-10.187 10.996L327.5 796.835c-5.808 13.448-24.581 14.236-31.495 1.321l-99.163-185.24a22.503 22.503 0 00-12.621-10.693L7.576 542.416c-14.358-4.862-16.165-24.437-2.939-31.845l168.225-94.218a22.493 22.493 0 009.894-11.268L257.492 218.4z" stroke="#fff" stroke-opacity=".2" stroke-width="5"/></svg>

<svg width="801" height="1018" viewBox="0 0 801 1018" fill="none" xmlns="http://www.w3.org/2000/svg">
<path d="M262.022 284.507C267.326 271.258 285.406 269.588 293.048 281.64L377.333 414.567C379.768 418.407 383.31 421.42 387.491 423.207L513.448 477.053C527.001 482.847 527.759 501.776 514.712 508.634L398.319 569.825C393.767 572.218 390.172 576.099 388.133 580.82L323.237 731.102C317.43 744.55 298.656 745.338 291.743 732.423L217.24 593.248C214.543 588.211 210.031 584.388 204.619 582.556L73.6305 538.206C59.2721 533.345 57.4653 513.77 70.6913 506.362L195.897 436.238C200.387 433.724 203.879 429.746 205.791 424.969L262.022 284.507Z" stroke="white" stroke-opacity="0.3" stroke-width="5"/>
<path d="M276.056 362.818C278.329 357.139 286.077 356.423 289.352 361.589L346.008 450.94C347.36 453.074 349.328 454.747 351.651 455.74L437.403 492.399C443.212 494.882 443.537 502.995 437.945 505.934L358.374 547.767C355.845 549.096 353.847 551.252 352.715 553.875L309.018 655.065C306.529 660.829 298.483 661.167 295.52 655.632L245.192 561.617C243.694 558.819 241.187 556.695 238.181 555.677L148.476 525.305C142.322 523.222 141.548 514.832 147.216 511.658L232.631 463.819C235.125 462.423 237.065 460.213 238.128 457.559L276.056 362.818Z" stroke="white" stroke-opacity="0.6" stroke-width="5"/>
<path d="M257.492 218.4C262.796 205.151 280.875 203.48 288.518 215.533L400.171 391.623C402.606 395.463 406.148 398.476 410.329 400.263L579.234 472.469C592.787 478.263 593.545 497.192 580.499 504.051L423.796 586.433C419.243 588.826 415.648 592.707 413.609 597.429L327.5 796.835C321.692 810.283 302.919 811.071 296.005 798.156L196.842 612.916C194.146 607.879 189.633 604.056 184.221 602.223L7.57625 542.416C-6.7822 537.554 -8.58904 517.979 4.63696 510.571L172.862 416.353C177.352 413.839 180.844 409.862 182.756 405.085L257.492 218.4Z" stroke="white" stroke-opacity="0.2" stroke-width="5"/>
</svg>
